X:94
T:My Love Is Like A Red Red Rose
M:3/4
L:1/4
K:D major
%
(A/F/) |"D"D2 D |"A"E2 F |"D"d2 c |"G"B2 A |"Em"B2 A |"G"B2 d |"A"e3 |"A7"(d e f)|
"D"D2 D |"A7"E2 F |"Bm"d2 c |"G"B2 A |"Em"B2 A |"A7"B2 c |"D"d3 | d2 A|
"D"d2 f |"A"e2 d |"G"B d2 |"D"A2 F |A2 A |"G"g2 f |"A"f3 |"A7"(e2 a)|
"D"f a2 |f2 d |"G"B d2 |"D"A2 F |"Em"A2 A |"A7"B2 c |"D"d3 | d2 |]
